X:835
T:The cat's rambles to the childs saucepan
T:Mary Willie's
R:Slide
O:Ireland
D:Bothy Band: Out of the Wind, into the Sun
S:blakeley.abc
Z:Transcription:???, chords:Mike Long
M:12/8
L:1/8
K:D
A3|:\
"D"d2e f2e dcd "G"~B3|"A"{a}g2e cBA {f}e2A cBA|\
"D"d2e {fg}f2e dcd "G"~B3|
[1 "A"g2e cBA "D"d3 dBA:|[2 "A"g2e cBA "D"d3 d2A\
|:"D"d2e f2a baf a2f|
"A"{f}e2A cBA {f}e2A cBA|\
"D"d2e f2a baf a2f|[1 "A"{f}e2A cBA "D"d3 dBA:|[2 "A"{f}e2A cBA "D"d3 d3|]
